cubes/5.CUBE
#Created by: Adobe Photoshop Export Color Lookup Plugin
TITLE "TEST2"
#LUT size
LUT_3D_SIZE 5
#data domain
#LUT data points
DOMAIN_MIN 0.000000 0.000000 0.000000
DOMAIN_MAX 0.903226 0.903226 0.903226
0.000000 0.000000 0.000000
0.139191 0.078796 0.078796
0.410919 0.024353 0.024567
0.646423 0.061310 0.062988
0.825104 0.090942 0.090973
0.048767 0.172028 0.048798
0.204590 0.166931 0.000000
0.511414 0.133453 0.000000
0.743256 0.104706 0.061737
0.910828 0.105133 0.105133
0.000000 0.452362 0.000000
0.132172 0.434174 0.000000
0.562164 0.420380 0.000000
0.830719 0.307617 0.000000
1.000000 0.205933 0.055939
0.000000 0.767212 0.000000
0.000000 0.752197 0.000000
0.497406 0.736023 0.000000
0.848297 0.723450 0.000000
1.000000 0.518433 0.000000
0.000000 1.000000 0.000000
0.000000 1.000000 0.000000
0.341919 1.000000 0.000000
0.760895 0.989899 0.000000
1.000000 0.932404 0.000000
0.113770 0.113770 0.345428
0.281616 0.052338 0.322601
0.565430 0.047882 0.288544
0.780151 0.083466 0.219696
0.940338 0.110046 0.168274
0.026703 0.203247 0.327301
0.225220 0.177490 0.243103
0.534729 0.180786 0.277618
0.769012 0.131195 0.219116
0.932861 0.108795 0.164337
0.000000 0.448883 0.279083
0.272766 0.351654 0.278412
0.552399 0.421600 0.324829
0.839935 0.371185 0.318909
1.000000 0.268341 0.266724
0.000000 0.760925 0.000000
0.274414 0.699341 0.266846
0.562683 0.685913 0.193024
0.883942 0.726318 0.137512
1.000000 0.557068 0.218872
0.000000 1.000000 0.000000
0.000000 0.997620 0.000000
0.513580 0.990540 0.000000
0.831818 0.974304 0.000000
1.000000 0.935730 0.000000
0.238342 0.232635 0.631348
0.377747 0.184235 0.591431
0.685242 0.067749 0.600037
0.895111 0.102539 0.474426
1.000000 0.127228 0.343872
0.204346 0.280151 0.585175
0.364380 0.277344 0.542450
0.641968 0.251984 0.553436
0.880310 0.204590 0.465515
1.000000 0.158295 0.340271
0.000000 0.464935 0.569794
0.349213 0.405426 0.464783
0.567444 0.458160 0.507202
0.860962 0.407593 0.491028
1.000000 0.273712 0.367676
0.000000 0.759338 0.505249
0.351776 0.689972 0.508850
0.604584 0.653442 0.540649
0.903107 0.762451 0.613342
1.000000 0.628601 0.535919
0.000000 1.000000 0.349060
0.157928 0.996307 0.449829
0.661011 0.976288 0.549652
0.886383 0.966217 0.510712
1.000000 0.950134 0.480072
0.372742 0.356354 0.928864
0.492950 0.319916 0.897156
0.755554 0.228973 0.899017
1.000000 0.125671 0.894348
1.000000 0.148529 0.688019
0.353394 0.389465 0.879639
0.494202 0.386993 0.869415
0.732391 0.326477 0.854401
1.000000 0.298035 0.868256
1.000000 0.230164 0.679504
0.290405 0.540619 0.888641
0.510284 0.545166 0.805573
0.694824 0.536469 0.776459
0.987396 0.579041 0.853180
1.000000 0.438416 0.704376
0.000000 0.768585 0.827148
0.437225 0.713562 0.758942
0.694092 0.710358 0.729614
0.938141 0.829803 0.853210
1.000000 0.685516 0.745087
0.000000 1.000000 0.754150
0.315247 0.994354 0.763702
0.768372 0.966400 0.821808
0.934784 0.961334 0.843658
1.000000 0.969727 0.845551
0.487000 0.464966 1.000000
0.585541 0.426636 1.000000
0.830933 0.374878 1.000000
1.000000 0.226624 1.000000
1.000000 0.149750 1.000000
0.473572 0.488525 1.000000
0.599854 0.485626 1.000000
0.824707 0.435974 1.000000
1.000000 0.337494 1.000000
1.000000 0.293427 1.000000
0.446838 0.620270 1.000000
0.647339 0.659149 1.000000
0.843292 0.643555 1.000000
1.000000 0.604645 1.000000
1.000000 0.578003 1.000000
0.254639 0.829010 1.000000
0.588074 0.831421 1.000000
0.869263 0.875153 1.000000
1.000000 0.870056 1.000000
1.000000 0.857422 1.000000
0.000000 1.000000 1.000000
0.401917 0.991730 1.000000
0.801544 0.966736 0.972290
0.965576 0.969513 0.971283
1.000000 0.983978 0.988068
