cubes/5.CUBE
#Created by: Adobe Photoshop Export Color Lookup Plugin
TITLE "TEST2"
#LUT size
LUT_3D_SIZE 8
#data domain
#LUT data points
DOMAIN_MIN 0.000000 0.000000 0.000000
DOMAIN_MAX 0.903226 0.903226 0.903226
0.000000 0.000000 0.000000
0.029175 0.020386 0.020416
0.171082 0.084595 0.084595
0.319031 0.018982 0.019012
0.487366 0.035065 0.037201
0.610748 0.055359 0.057434
0.766754 0.081268 0.081604
0.825104 0.090942 0.090973
0.041901 0.067261 0.041931
0.061401 0.063080 0.037476
0.244385 0.098816 0.050385
0.387451 0.058197 0.003510
0.547516 0.059296 0.037415
0.669952 0.065186 0.065216
0.819427 0.089996 0.089996
0.872437 0.098785 0.098785
0.000000 0.209930 0.000000
0.078369 0.202148 0.000000
0.255035 0.195801 0.000000
0.438019 0.184570 0.000000
0.599762 0.149872 0.000000
0.721588 0.126434 0.034485
0.870850 0.113068 0.091187
0.924164 0.112549 0.104889
0.000000 0.369171 0.000000
0.000000 0.358734 0.000000
0.231445 0.343506 0.000000
0.448547 0.338409 0.000000
0.643829 0.299255 0.000000
0.771027 0.244598 0.000000
0.925140 0.178467 0.055634
0.981018 0.159821 0.090790
0.000000 0.537659 0.000000
0.000000 0.529144 0.000000
0.172516 0.517731 0.000000
0.422333 0.501984 0.000000
0.660675 0.504883 0.000000
0.810028 0.429413 0.000000
0.976776 0.313202 0.000000
1.000000 0.270233 0.000000
0.000000 0.719452 0.000000
0.000000 0.710846 0.000000
0.000000 0.701721 0.000000
0.376892 0.691650 0.000000
0.620087 0.678131 0.000000
0.806641 0.678436 0.000000
1.000000 0.523224 0.000000
1.000000 0.458008 0.000000
0.000000 0.906860 0.000000
0.000000 0.899017 0.000000
0.000000 0.891449 0.000000
0.252625 0.885498 0.000000
0.564423 0.878876 0.000000
0.750732 0.864929 0.000000
0.990936 0.808868 0.000000
1.000000 0.722412 0.000000
0.000000 1.000000 0.000000
0.000000 1.000000 0.000000
0.000000 1.000000 0.000000
0.000000 1.000000 0.000000
0.499115 1.000000 0.000000
0.705719 0.994934 0.000000
0.940521 0.963409 0.000000
1.000000 0.932404 0.000000
0.106171 0.106171 0.210541
0.141632 0.098846 0.201813
0.282715 0.046356 0.208588
0.424042 0.026001 0.189087
0.584290 0.050964 0.167297
0.699310 0.070099 0.149872
0.845001 0.094238 0.132202
0.898376 0.103088 0.128967
0.095093 0.126923 0.205444
0.133087 0.121918 0.179749
0.267975 0.101959 0.190704
0.415161 0.082550 0.179932
0.572327 0.071411 0.161102
0.689209 0.068420 0.143585
0.833649 0.092346 0.128387
0.887512 0.101257 0.125793
0.002594 0.207916 0.195038
0.120453 0.174744 0.162201
0.231232 0.187866 0.177734
0.422699 0.223358 0.215790
0.603546 0.201080 0.211212
0.733429 0.166382 0.190002
0.885223 0.128082 0.159180
0.939728 0.117249 0.149292
0.000000 0.365082 0.150085
0.097687 0.321381 0.166016
0.249115 0.285950 0.169037
0.440521 0.330261 0.185791
0.644714 0.326843 0.208649
0.778290 0.284363 0.210785
0.935822 0.218475 0.199158
0.991486 0.195709 0.191986
0.000000 0.534760 0.000000
0.000000 0.494843 0.117737
0.277069 0.468170 0.135254
0.432556 0.454681 0.046082
0.670593 0.501404 0.054108
0.822052 0.448334 0.135956
0.991333 0.343018 0.181549
1.000000 0.300476 0.188690
0.000000 0.714752 0.000000
0.000000 0.686218 0.000000
0.234161 0.668854 0.000000
0.440735 0.659058 0.000000
0.637329 0.646637 0.000000
0.830261 0.675262 0.000000
1.000000 0.540558 0.000000
1.000000 0.478577 0.000000
0.000000 0.902771 0.000000
0.000000 0.884766 0.000000
0.000000 0.873474 0.000000
0.378967 0.867065 0.000000
0.619415 0.860535 0.000000
0.784363 0.846985 0.000000
1.000000 0.812958 0.000000
1.000000 0.731873 0.000000
0.000000 1.000000 0.000000
0.000000 1.000000 0.000000
0.000000 1.000000 0.000000
0.273407 0.998108 0.000000
0.574371 0.994690 0.000000
0.756561 0.984344 0.000000
0.978058 0.957184 0.000000
1.000000 0.932404 0.000000
0.129913 0.129913 0.385193
0.189636 0.109772 0.365051
0.334412 0.041748 0.358673
0.500885 0.037262 0.350555
0.653931 0.062561 0.305206
0.763885 0.080780 0.261932
0.903137 0.103851 0.204742
0.954437 0.112396 0.185547
0.109222 0.149780 0.366058
0.189728 0.155304 0.351685
0.319061 0.115265 0.336609
0.489960 0.112946 0.336517
0.640289 0.104095 0.295044
0.753204 0.096741 0.254578
0.892944 0.102173 0.198975
0.944305 0.110718 0.180786
0.010681 0.238281 0.362946
0.173767 0.219421 0.306122
0.260681 0.204834 0.266602
0.445679 0.231750 0.316498
0.624298 0.203461 0.300201
0.749512 0.168213 0.263641
0.895996 0.129700 0.204773
0.948547 0.118713 0.183228
0.000000 0.366028 0.338013
0.143188 0.309662 0.289185
0.298309 0.305481 0.298462
0.425720 0.344574 0.332397
0.628754 0.366058 0.362793
0.777954 0.324066 0.337555
0.946655 0.233917 0.269318
1.000000 0.200012 0.240326
0.000000 0.530548 0.302063
0.112427 0.485565 0.304291
0.330750 0.429230 0.325043
0.422668 0.421997 0.312622
0.662323 0.511017 0.369507
0.819244 0.479462 0.365723
0.997314 0.382690 0.326965
1.000000 0.338593 0.305542
0.000000 0.712372 0.205963
0.000000 0.680115 0.258606
0.350067 0.633606 0.333374
0.479401 0.625916 0.311615
0.638275 0.625488 0.283051
0.837189 0.682098 0.306488
1.000000 0.569489 0.305786
1.000000 0.510040 0.298523
0.000000 0.901764 0.000000
0.000000 0.881683 0.000000
0.281860 0.853668 0.242798
0.468781 0.848175 0.197510
0.657867 0.843414 0.093292
0.799500 0.831879 0.000000
1.000000 0.827026 0.000000
1.000000 0.749603 0.000000
0.000000 1.000000 0.000000
0.000000 1.000000 0.000000
0.098083 0.993561 0.000000
0.411774 0.989380 0.000000
0.636505 0.987061 0.000000
0.794678 0.977539 0.000000
1.000000 0.961487 0.000000
1.000000 0.937286 0.000000
0.199432 0.199432 0.550812
0.254669 0.174652 0.517822
0.384796 0.132751 0.510345
0.555511 0.046234 0.513672
0.724365 0.074219 0.474945
0.829803 0.091736 0.408813
0.963135 0.113831 0.315430
1.000000 0.122009 0.279724
0.177490 0.203674 0.508820
0.256012 0.210083 0.510803
0.379089 0.175903 0.498657
0.540924 0.130402 0.493256
0.709625 0.132568 0.459442
0.818390 0.125122 0.398712
0.953674 0.116028 0.308044
1.000000 0.120392 0.273254
0.147522 0.276520 0.510010
0.250366 0.276886 0.464783
0.347412 0.263519 0.433929
0.493652 0.260284 0.448425
0.687347 0.254791 0.452148
0.811218 0.217438 0.403198
0.955475 0.165924 0.314667
1.000000 0.152405 0.278687
0.000000 0.385742 0.499603
0.220856 0.354889 0.444092
0.339447 0.339996 0.385071
0.447449 0.359497 0.412842
0.652069 0.374023 0.450317
0.798065 0.327728 0.417725
0.960938 0.236053 0.330536
1.000000 0.202087 0.291565
0.000000 0.527496 0.469116
0.172211 0.477814 0.431854
0.353363 0.426758 0.400848
0.460327 0.452087 0.434937
0.659454 0.537170 0.509735
0.814362 0.521179 0.506714
1.000000 0.420898 0.435120
1.000000 0.364410 0.390381
0.000000 0.711060 0.429260
0.010925 0.675232 0.432739
0.390472 0.623993 0.452576
0.515656 0.603638 0.470825
0.646545 0.623322 0.477722
0.843719 0.700836 0.527924
1.000000 0.609711 0.485291
1.000000 0.552307 0.455475
0.000000 0.902161 0.325714
0.000000 0.880188 0.364502
0.360718 0.846771 0.441772
0.549683 0.829376 0.479492
0.693726 0.827301 0.462524
0.809296 0.818542 0.436646
1.000000 0.850433 0.449341
1.000000 0.774536 0.427063
0.000000 1.000000 0.156128
0.000000 1.000000 0.246979
0.270630 0.990631 0.381622
0.528839 0.979980 0.437103
0.699646 0.979614 0.412140
0.832153 0.972015 0.374756
1.000000 0.968842 0.310730
1.000000 0.945221 0.304840
0.275299 0.265747 0.711212
0.326385 0.245331 0.685425
0.443268 0.211639 0.673859
0.598938 0.141815 0.675262
0.796082 0.086121 0.681519
0.902863 0.103821 0.602051
1.000000 0.124939 0.473145
1.000000 0.132782 0.421448
0.256805 0.267273 0.659424
0.324707 0.270325 0.673584
0.438904 0.241241 0.663239
0.583771 0.183563 0.651001
0.780304 0.162170 0.659607
0.891144 0.154236 0.587860
1.000000 0.142578 0.464203
1.000000 0.138855 0.413452
0.238922 0.327148 0.665771
0.328766 0.338135 0.630096
0.426453 0.322571 0.614075
0.550690 0.293915 0.602905
0.753113 0.305481 0.636536
0.880127 0.272797 0.585052
1.000000 0.211517 0.469666
1.000000 0.190704 0.419067
0.174561 0.424774 0.667267
0.307831 0.412628 0.616302
0.419342 0.407837 0.550110
0.508698 0.395752 0.542175
0.712952 0.441010 0.610840
0.861176 0.405182 0.587769
1.000000 0.309326 0.484985
1.000000 0.268372 0.433868
0.000000 0.546509 0.640228
0.258057 0.512695 0.591644
0.412933 0.479279 0.531128
0.512207 0.496613 0.527802
0.680511 0.561249 0.604034
0.835449 0.537537 0.600952
1.000000 0.425079 0.511414
1.000000 0.367676 0.459167
0.000000 0.709503 0.603790
0.152679 0.670898 0.580078
0.418182 0.620605 0.555328
0.557495 0.608215 0.570740
0.672882 0.648102 0.609375
0.855377 0.734802 0.683380
1.000000 0.662445 0.635986
1.000000 0.606781 0.595337
0.000000 0.902924 0.548828
0.000000 0.879120 0.557251
0.404785 0.844971 0.583557
0.615723 0.817871 0.631866
0.731171 0.817139 0.639191
0.825470 0.818848 0.633942
1.000000 0.876495 0.669373
1.000000 0.807404 0.627380
0.000000 1.000000 0.479492
0.000000 1.000000 0.503937
0.337524 0.990997 0.559967
0.623657 0.973206 0.641266
0.765442 0.973175 0.648590
0.870209 0.968048 0.634308
1.000000 0.975769 0.620667
1.000000 0.955597 0.608185
0.352325 0.337219 0.882935
0.401947 0.320709 0.864258
0.506805 0.291901 0.850128
0.652832 0.247314 0.855103
0.825348 0.122589 0.846039
0.981598 0.116882 0.850128
1.000000 0.137726 0.693146
1.000000 0.145142 0.625122
0.337097 0.337921 0.827789
0.398590 0.338043 0.849823
0.503448 0.313202 0.840790
0.640686 0.269806 0.831848
0.809235 0.176849 0.820709
0.969666 0.186035 0.830872
1.000000 0.170227 0.681335
1.000000 0.165649 0.615021
0.327423 0.388062 0.837280
0.410034 0.404327 0.815643
0.503601 0.385712 0.807159
0.628387 0.358246 0.798431
0.783447 0.312317 0.787598
0.956055 0.331360 0.817749
1.000000 0.267426 0.684326
1.000000 0.240540 0.619659
0.292755 0.474152 0.845917
0.398285 0.476044 0.804169
0.509949 0.482117 0.755615
0.611664 0.467438 0.748413
0.744049 0.448761 0.741730
0.933929 0.487091 0.803741
1.000000 0.395050 0.696014
1.000000 0.349335 0.634033
0.197662 0.587280 0.829681
0.363098 0.574280 0.788696
0.508759 0.566986 0.729309
0.606415 0.572723 0.699646
0.710602 0.573395 0.704254
0.907135 0.639923 0.795105
1.000000 0.540009 0.717682
1.000000 0.479736 0.658173
0.000000 0.721893 0.788513
0.259918 0.691833 0.751465
0.473267 0.656342 0.702118
0.605896 0.649567 0.678009
0.714569 0.689087 0.708405
0.878540 0.770660 0.797638
1.000000 0.686920 0.744690
1.000000 0.616669 0.685638
0.000000 0.901917 0.744110
0.000000 0.876343 0.732971
0.445618 0.841736 0.723938
0.639557 0.816254 0.730927
0.775238 0.819916 0.765778
0.856934 0.842346 0.782867
1.000000 0.907135 0.837006
1.000000 0.847198 0.789764
0.000000 1.000000 0.701080
0.000000 1.000000 0.706543
0.395294 0.989807 0.726471
0.655121 0.971893 0.764709
0.831207 0.966583 0.816437
0.906281 0.964447 0.811310
1.000000 0.982666 0.818695
1.000000 0.966797 0.805511
0.433350 0.413666 1.000000
0.476837 0.396027 1.000000
0.571808 0.371674 1.000000
0.708679 0.340668 1.000000
0.874268 0.269226 1.000000
1.000000 0.147186 1.000000
1.000000 0.149750 0.981537
1.000000 0.149750 0.895874
0.415619 0.408356 1.000000
0.476166 0.411621 1.000000
0.572113 0.390167 1.000000
0.700836 0.355774 1.000000
0.863129 0.292847 1.000000
0.996094 0.195496 1.000000
1.000000 0.200256 0.966217
1.000000 0.186707 0.882568
0.416260 0.455902 1.000000
0.490540 0.471497 1.000000
0.580200 0.453339 1.000000
0.701813 0.428284 1.000000
0.856171 0.388123 0.995300
0.983032 0.333191 0.983093
1.000000 0.329529 0.964203
1.000000 0.294067 0.883118
0.397278 0.532959 1.000000
0.491455 0.545197 1.000000
0.599365 0.554382 0.976868
0.706390 0.538635 0.970978
0.845245 0.517548 0.965332
0.963562 0.490997 0.957672
1.000000 0.487579 0.964661
1.000000 0.434692 0.888519
0.342865 0.636780 1.000000
0.466797 0.639069 0.997833
0.611053 0.654999 0.952515
0.718658 0.663391 0.929932
0.833008 0.655548 0.927124
0.938965 0.648132 0.928650
1.000000 0.656860 0.963318
1.000000 0.592072 0.895660
0.174011 0.764313 0.999146
0.393097 0.754669 0.971008
0.577850 0.749756 0.930634
0.720856 0.760773 0.894043
0.822601 0.775024 0.884583
0.909454 0.783752 0.898071
1.000000 0.814178 0.954468
1.000000 0.746429 0.898438
0.000000 0.905762 0.939301
0.170013 0.882935 0.915131
0.496185 0.854950 0.882141
0.678253 0.836365 0.856232
0.814240 0.845764 0.856750
0.896973 0.880737 0.888855
1.000000 0.932007 0.947906
1.000000 0.874756 0.902313
0.000000 1.000000 0.904572
0.000000 1.000000 0.895721
0.445068 0.985352 0.888214
0.683502 0.967926 0.890198
0.857117 0.962921 0.909912
0.936615 0.963196 0.925964
1.000000 0.988739 0.947693
1.000000 0.978088 0.938049
0.487000 0.464966 1.000000
0.522797 0.442566 1.000000
0.612885 0.421478 1.000000
0.744415 0.397156 1.000000
0.907959 0.343353 1.000000
1.000000 0.262665 1.000000
1.000000 0.149750 1.000000
1.000000 0.149750 1.000000
0.465515 0.453583 1.000000
0.527557 0.461395 1.000000
0.618073 0.441772 1.000000
0.741150 0.411591 1.000000
0.898865 0.359589 1.000000
1.000000 0.288147 1.000000
1.000000 0.205139 1.000000
1.000000 0.198883 1.000000
0.473114 0.501617 1.000000
0.543304 0.516846 1.000000
0.629639 0.499451 1.000000
0.747955 0.475861 1.000000
0.900269 0.439392 1.000000
1.000000 0.390839 1.000000
1.000000 0.343353 1.000000
1.000000 0.330231 1.000000
0.462006 0.574219 1.000000
0.552429 0.592621 1.000000
0.655396 0.600037 1.000000
0.763245 0.584106 1.000000
0.904449 0.563232 1.000000
1.000000 0.533905 1.000000
1.000000 0.509155 1.000000
1.000000 0.491486 1.000000
0.421234 0.672577 1.000000
0.533142 0.682953 1.000000
0.678314 0.711517 1.000000
0.788818 0.719208 1.000000
0.911194 0.710419 1.000000
1.000000 0.694427 1.000000
1.000000 0.683777 1.000000
1.000000 0.663971 1.000000
0.310028 0.794861 1.000000
0.471863 0.795837 1.000000
0.647736 0.807678 1.000000
0.801361 0.835052 1.000000
0.913971 0.849182 1.000000
0.994263 0.842224 1.000000
1.000000 0.841278 1.000000
1.000000 0.822662 1.000000
0.000000 0.931976 1.000000
0.314087 0.922302 1.000000
0.570312 0.914948 1.000000
0.756561 0.916992 1.000000
0.903229 0.934326 1.000000
0.968201 0.941406 0.995514
1.000000 0.952576 1.000000
1.000000 0.939270 1.000000
0.000000 1.000000 1.000000
0.000000 1.000000 1.000000
0.478119 0.986664 0.996521
0.704803 0.970673 0.978119
0.871216 0.966187 0.970184
0.950195 0.967865 0.969971
1.000000 0.992065 0.994080
1.000000 0.983978 0.988068
