cubes/5.CUBE
#Created by: Adobe Photoshop Export Color Lookup Plugin
TITLE "TEST2"
#LUT size
LUT_3D_SIZE 32
#data domain
DOMAIN_MIN 0.0 0.0 0.0
DOMAIN_MAX 1.0 1.0 1.0
#LUT data points
0.000000 0.000000 0.000000
0.000031 0.000031 0.000031
0.000031 0.000031 0.000031
0.000031 0.000031 0.000031
0.029175 0.020386 0.020416
0.067963 0.045258 0.045258
0.104218 0.065643 0.065643
0.139191 0.078796 0.078796
0.171082 0.084595 0.084595
0.197968 0.084259 0.084290
0.228424 0.077515 0.077545
0.272491 0.054199 0.054230
0.319031 0.018982 0.019012
0.365265 0.019043 0.019104
0.410919 0.024353 0.024567
0.451508 0.029694 0.031006
0.487366 0.035065 0.037201
0.519165 0.040253 0.042603
0.549011 0.045135 0.047607
0.578949 0.050110 0.052399
0.610748 0.055359 0.057434
0.646423 0.061310 0.062988
0.687805 0.068176 0.069427
0.730865 0.075287 0.075928
0.766754 0.081268 0.081604
0.790863 0.085236 0.085388
0.806549 0.087860 0.087921
0.817261 0.089630 0.089661
0.825104 0.090942 0.090973
0.831268 0.091980 0.091980
0.836426 0.092804 0.092804
0.841187 0.093567 0.093567
0.000031 0.000031 0.000031
0.000031 0.000031 0.000031
0.000031 0.000031 0.000031
0.000031 0.000031 0.000031
0.041748 0.028046 0.028046
0.080414 0.052917 0.052948
0.118256 0.071747 0.071777
0.155396 0.082550 0.082550
0.189789 0.084900 0.084900
0.219513 0.080261 0.080292
0.248596 0.069092 0.069122
0.290436 0.039825 0.039856
0.333984 0.015839 0.015900
0.378052 0.020447 0.020508
0.422791 0.025848 0.025879
0.465485 0.031708 0.031738
0.503021 0.037598 0.037598
0.536072 0.042999 0.043030
0.565643 0.047913 0.048401
0.595367 0.052795 0.053436
0.626953 0.058044 0.058777
0.662384 0.063934 0.064606
0.703522 0.070801 0.071228
0.746277 0.077789 0.078003
0.781830 0.083740 0.083740
0.803894 0.087402 0.087402
0.817963 0.089752 0.089752
0.827393 0.091339 0.091339
0.834381 0.092468 0.092468
0.839844 0.093353 0.093353
0.844299 0.094116 0.094116
0.848358 0.094788 0.094788
0.000031 0.000031 0.000031
0.000031 0.000031 0.000031
0.000031 0.000031 0.000031
0.005066 0.003815 0.003815
0.054565 0.036377 0.036407
0.095734 0.061462 0.061462
0.135345 0.077667 0.077667
0.174561 0.084839 0.084839
0.211090 0.082245 0.082275
0.242767 0.071899 0.071899
0.272888 0.053894 0.053925
0.312775 0.022369 0.022400
0.353424 0.017792 0.017853
0.396057 0.022522 0.022583
0.439514 0.028046 0.028107
0.481018 0.034088 0.034119
0.517670 0.040009 0.040039
0.550079 0.045319 0.045349
0.580322 0.050323 0.050323
0.610565 0.055328 0.055328
0.642517 0.060669 0.060669
0.677979 0.066528 0.066528
0.718445 0.073273 0.073273
0.759766 0.080078 0.080078
0.793488 0.085663 0.085663
0.815613 0.089355 0.089355
0.829803 0.091736 0.091736
0.839417 0.093292 0.093292
0.846375 0.094452 0.094452
0.851837 0.095367 0.095367
0.856384 0.096100 0.096100
0.860474 0.096741 0.096741
0.022461 0.033844 0.022491
0.022186 0.033325 0.022186
0.021912 0.032837 0.021912
0.025360 0.032257 0.021362
0.057281 0.048706 0.036224
0.103088 0.074921 0.062164
0.149323 0.091431 0.077087
0.190887 0.095001 0.079498
0.229645 0.088104 0.070557
0.263062 0.073242 0.052460
0.294739 0.051575 0.026611
0.332581 0.030853 0.008698
0.372131 0.031281 0.014618
0.414185 0.032684 0.021240
0.456787 0.034668 0.028656
0.497620 0.037445 0.036499
0.533569 0.042603 0.042633
0.565460 0.047882 0.047943
0.595398 0.052795 0.052826
0.625153 0.057739 0.057770
0.656738 0.063019 0.063019
0.691864 0.068878 0.068878
0.732086 0.075470 0.075470
0.773163 0.082306 0.082306
0.806854 0.087891 0.087891
0.829071 0.091614 0.091614
0.843262 0.093933 0.093933
0.852936 0.095551 0.095551
0.859863 0.096649 0.096649
0.865295 0.097565 0.097565
0.869965 0.098389 0.098389
0.874084 0.099060 0.099060
0.041901 0.067261 0.041931
0.041412 0.066315 0.041412
0.041168 0.065857 0.041168
0.047028 0.064911 0.040070
0.061401 0.063080 0.037476
0.104950 0.085968 0.059387
0.153870 0.103577 0.072174
0.203827 0.107971 0.068207
0.244385 0.098816 0.050385
0.279205 0.082977 0.022034
0.311798 0.065216 0.000000
0.348267 0.059113 0.000000
0.387451 0.058197 0.003510
0.429199 0.058014 0.011230
0.471405 0.058167 0.019806
0.511688 0.058563 0.028717
0.547516 0.059296 0.037415
0.579254 0.060150 0.045227
0.608917 0.061218 0.052155
0.638519 0.062592 0.058838
0.669952 0.065186 0.065216
0.704834 0.071014 0.071014
0.744781 0.077545 0.077545
0.785828 0.084412 0.084412
0.819427 0.089996 0.089996
0.841583 0.093658 0.093658
0.855774 0.096008 0.096008
0.865417 0.097595 0.097595
0.872437 0.098785 0.098785
0.877899 0.099670 0.099670
0.882507 0.100433 0.100433
0.886658 0.101135 0.101135
0.057037 0.100922 0.057037
0.056641 0.099731 0.056641
0.056427 0.099121 0.056458
0.064362 0.097870 0.055054
0.079620 0.095856 0.052155
0.105072 0.099548 0.053375
0.154663 0.117920 0.063171
0.207214 0.124512 0.051453
0.256775 0.117218 0.012970
0.292908 0.102539 0.000000
0.326202 0.091187 0.000000
0.362427 0.087738 0.000000
0.401642 0.084351 0.000000
0.443298 0.081512 0.000000
0.485229 0.079407 0.008484
0.525330 0.078033 0.019104
0.560852 0.077301 0.028778
0.592316 0.077209 0.037781
0.621857 0.077209 0.046204
0.651337 0.077301 0.054138
0.682617 0.077698 0.062134
0.717560 0.078644 0.070496
0.757477 0.080444 0.079346
0.798370 0.086487 0.086487
0.831879 0.092072 0.092072
0.854095 0.095734 0.095734
0.868225 0.098083 0.098083
0.877930 0.099670 0.099670
0.884979 0.100830 0.100830
0.890381 0.101746 0.101746
0.895050 0.102539 0.102539
0.899109 0.103210 0.103210
0.061981 0.135773 0.062012
0.062073 0.134399 0.062073
0.062103 0.133575 0.062103
0.073456 0.131958 0.060364
0.091644 0.129883 0.056763
0.114105 0.127167 0.051208
0.153595 0.135468 0.047791
0.206879 0.144287 0.024567
0.259918 0.141052 0.000000
0.304504 0.132111 0.000000
0.338715 0.125092 0.000000
0.375336 0.119843 0.000000
0.414917 0.114380 0.000000
0.456604 0.109161 0.000000
0.498657 0.104523 0.000000
0.538696 0.100769 0.003510
0.574127 0.097504 0.016052
0.605530 0.095276 0.027039
0.634918 0.093506 0.037659
0.664307 0.092377 0.047699
0.695496 0.091705 0.057129
0.730316 0.091431 0.066803
0.770172 0.091522 0.076996
0.811157 0.092346 0.086853
0.844727 0.094177 0.094177
0.866852 0.097839 0.097839
0.881073 0.100189 0.100189
0.890686 0.101807 0.101807
0.897766 0.102997 0.102997
0.903198 0.103851 0.103851
0.907867 0.104614 0.104614
0.912018 0.105316 0.105316
0.048767 0.172028 0.048798
0.049896 0.170471 0.049927
0.050598 0.169464 0.050629
0.069305 0.167419 0.048279
0.093262 0.165192 0.043182
0.121490 0.162384 0.034393
0.153229 0.158630 0.021423
0.204590 0.166931 0.000000
0.258423 0.167297 0.000000
0.307190 0.163727 0.000000
0.349518 0.162292 0.000000
0.386902 0.155212 0.000000
0.427032 0.147736 0.000000
0.469208 0.140411 0.000000
0.511414 0.133453 0.000000
0.551575 0.127289 0.000000
0.587067 0.121826 0.000000
0.618530 0.117279 0.009491
0.647980 0.113495 0.022888
0.677368 0.110107 0.036224
0.708527 0.107086 0.049469
0.743256 0.104706 0.061737
0.783051 0.103363 0.073730
0.824036 0.102875 0.084717
0.857605 0.102814 0.093201
0.879883 0.103271 0.098480
0.894104 0.103699 0.101746
0.903900 0.104187 0.103882
0.910828 0.105133 0.105133
0.916382 0.106079 0.106079
0.921021 0.106842 0.106842
0.925201 0.107513 0.107513
0.000000 0.209930 0.000000
0.002319 0.208099 0.002350
0.004883 0.206604 0.004913
0.039154 0.204559 0.001617
0.078369 0.202148 0.000000
0.117218 0.199097 0.000000
0.156891 0.195251 0.000000
0.199829 0.192535 0.000000
0.255035 0.195801 0.000000
0.304688 0.195099 0.000000
0.352966 0.197388 0.000000
0.396942 0.193817 0.000000
0.438019 0.184570 0.000000
0.480835 0.174988 0.000000
0.523590 0.165863 0.000000
0.563965 0.157501 0.000000
0.599762 0.149872 0.000000
0.631317 0.143372 0.000000
0.660950 0.137390 0.000000
0.690338 0.131744 0.016998
0.721588 0.126434 0.034485
0.756409 0.121277 0.052338
0.796326 0.116669 0.068573
0.837219 0.114014 0.081696
0.870850 0.113068 0.091187
0.893158 0.112671 0.097046
0.907410 0.112549 0.100739
0.917175 0.112518 0.103180
0.924164 0.112549 0.104889
0.929779 0.112671 0.106262
0.934387 0.112701 0.107361
0.938538 0.112732 0.108368
0.000000 0.249023 0.000000
0.000000 0.246979 0.000000
0.000000 0.245270 0.000000
0.000000 0.242950 0.000000
0.030884 0.240112 0.000000
0.096680 0.236969 0.000000
0.149445 0.232971 0.000000
0.198486 0.227997 0.000000
0.249207 0.226471 0.000000
0.300476 0.227386 0.000000
0.350159 0.229706 0.000000
0.402283 0.232513 0.000000
0.447571 0.224518 0.000000
0.491394 0.213013 0.000000
0.534882 0.201630 0.000000
0.575897 0.191132 0.000000
0.611938 0.181519 0.000000
0.643738 0.172882 0.000000
0.673615 0.165039 0.000000
0.703217 0.157318 0.000000
0.734650 0.149445 0.010681
0.769623 0.141571 0.034882
0.809631 0.133728 0.058624
0.850677 0.127472 0.076477
0.884399 0.124084 0.088226
0.906738 0.122620 0.095093
0.921051 0.122162 0.099060
0.930817 0.121857 0.101746
0.937866 0.121643 0.103638
0.943359 0.121521 0.105103
0.948120 0.121429 0.106384
0.952240 0.121338 0.107452
0.000000 0.288574 0.000000
0.000000 0.286438 0.000000
0.000000 0.284607 0.000000
0.000000 0.282074 0.000000
0.000000 0.279144 0.000000
0.054779 0.275970 0.000000
0.131378 0.272034 0.000000
0.190948 0.267273 0.000000
0.243378 0.261688 0.000000
0.294159 0.260986 0.000000
0.345825 0.262909 0.000000
0.399384 0.265625 0.000000
0.455353 0.268005 0.000000
0.500610 0.254578 0.000000
0.545105 0.241058 0.000000
0.586884 0.228424 0.000000
0.623566 0.216827 0.000000
0.655853 0.206390 0.000000
0.685913 0.196472 0.000000
0.715637 0.186920 0.000000
0.747040 0.176971 0.000000
0.782043 0.166351 0.007874
0.822449 0.154877 0.041382
0.864227 0.144653 0.066925
0.898193 0.138123 0.082642
0.920624 0.134735 0.091370
0.934937 0.133057 0.096313
0.944733 0.132233 0.099487
0.951843 0.131683 0.101715
0.957489 0.131226 0.103455
0.962067 0.130981 0.104767
0.966309 0.130768 0.106049
0.000000 0.328156 0.000000
0.000000 0.325745 0.000000
0.000000 0.323853 0.000000
0.000000 0.321167 0.000000
0.000000 0.318298 0.000000
0.006744 0.315247 0.000000
0.113800 0.311523 0.000000
0.181793 0.307190 0.000000
0.238342 0.302185 0.000000
0.286743 0.296844 0.000000
0.339539 0.297394 0.000000
0.394989 0.299896 0.000000
0.453064 0.302979 0.000000
0.508118 0.299713 0.000000
0.554138 0.284363 0.000000
0.596985 0.269470 0.000000
0.634369 0.255890 0.000000
0.666992 0.243713 0.000000
0.697235 0.232391 0.000000
0.727325 0.220947 0.000000
0.759125 0.208862 0.000000
0.794495 0.195435 0.000000
0.835236 0.180542 0.011536
0.877167 0.166290 0.050629
0.911896 0.155945 0.072906
0.934845 0.150085 0.084412
0.949341 0.147156 0.090942
0.959076 0.145264 0.095093
0.966309 0.144073 0.097900
0.971832 0.143158 0.100006
0.976501 0.142517 0.101715
0.980835 0.141907 0.103302
0.000000 0.369171 0.000000
0.000000 0.366638 0.000000
0.000000 0.364471 0.000000
0.000000 0.361481 0.000000
0.000000 0.358734 0.000000
0.000000 0.355469 0.000000
0.091644 0.351959 0.000000
0.170532 0.347931 0.000000
0.231445 0.343506 0.000000
0.282318 0.338898 0.000000
0.331085 0.333679 0.000000
0.388733 0.335480 0.000000
0.448547 0.338409 0.000000
0.509766 0.342102 0.000000
0.561493 0.331512 0.000000
0.605682 0.314636 0.000000
0.643829 0.299255 0.000000
0.677216 0.285431 0.000000
0.708069 0.272186 0.000000
0.738739 0.258911 0.000000
0.771027 0.244598 0.000000
0.806915 0.228516 0.000000
0.847931 0.210419 0.000000
0.890289 0.192322 0.019501
0.925140 0.178467 0.055634
0.948395 0.170074 0.072571
0.963409 0.165039 0.081512
0.973755 0.161835 0.086975
0.981018 0.159821 0.090790
0.986633 0.158386 0.093567
0.991333 0.157227 0.095825
0.995636 0.156250 0.097809
0.000000 0.411102 0.000000
0.000000 0.409119 0.000000
0.000000 0.406677 0.000000
0.000000 0.403656 0.000000
0.000000 0.400665 0.000000
0.000000 0.397552 0.000000
0.054260 0.394165 0.000000
0.154755 0.390381 0.000000
0.221863 0.386261 0.000000
0.275970 0.382080 0.000000
0.326843 0.377289 0.000000
0.380035 0.372803 0.000000
0.442322 0.375671 0.000000
0.505188 0.379150 0.000000
0.566589 0.382965 0.000000
0.612671 0.364105 0.000000
0.652130 0.346924 0.000000
0.686554 0.331177 0.000000
0.718231 0.316315 0.000000
0.749603 0.301025 0.000000
0.782562 0.284485 0.000000
0.819092 0.265961 0.000000
0.860779 0.244568 0.000000
0.903534 0.222717 0.000000
0.938721 0.205597 0.021820
0.962128 0.194611 0.050964
0.977234 0.187958 0.065063
0.987579 0.183502 0.073303
0.995056 0.180573 0.078430
1.000000 0.178253 0.082336
1.000000 0.176300 0.085480
1.000000 0.175201 0.088501
0.000000 0.452362 0.000000
0.000000 0.450623 0.000000
0.000000 0.448853 0.000000
0.000000 0.446686 0.000000
0.000000 0.444427 0.000000
0.000000 0.441101 0.000000
0.000000 0.437805 0.000000
0.132172 0.434174 0.000000
0.208801 0.430328 0.000000
0.267090 0.426422 0.000000
0.320709 0.422150 0.000000
0.374817 0.417328 0.000000
0.433929 0.413818 0.000000
0.499298 0.416779 0.000000
0.562164 0.420380 0.000000
0.617584 0.417908 0.000000
0.658875 0.398682 0.000000
0.694519 0.381165 0.000000
0.727417 0.364288 0.000000
0.759644 0.347229 0.000000
0.793427 0.328766 0.000000
0.830719 0.307617 0.000000
0.873199 0.283051 0.000000
0.916565 0.257690 0.000000
0.952209 0.237000 0.000000
0.975830 0.223694 0.008362
0.991119 0.215424 0.031830
1.000000 0.209839 0.046875
1.000000 0.205933 0.055939
1.000000 0.202942 0.062286
1.000000 0.200409 0.067169
1.000000 0.200958 0.072937
0.000000 0.494690 0.000000
0.000000 0.492920 0.000000
0.000000 0.490417 0.000000
0.000000 0.488586 0.000000
0.000000 0.486298 0.000000
0.000000 0.483887 0.000000
0.000000 0.481079 0.000000
0.100433 0.477905 0.000000
0.192108 0.474365 0.000000
0.255981 0.470703 0.000000
0.313049 0.466614 0.000000
0.369720 0.461731 0.000000
0.427521 0.456177 0.000000
0.490967 0.455200 0.000000
0.555634 0.458801 0.000000
0.614990 0.462555 0.000000
0.662781 0.454407 0.000000
0.700165 0.435059 0.000000
0.734283 0.416656 0.000000
0.767761 0.397675 0.000000
0.802643 0.376984 0.000000
0.841064 0.353363 0.000000
0.884521 0.325623 0.000000
0.928772 0.296692 0.000000
0.964935 0.272888 0.000000
0.988922 0.257233 0.000000
1.000000 0.247345 0.000000
1.000000 0.240509 0.000000
1.000000 0.235687 0.009369
1.000000 0.232086 0.020081
1.000000 0.229889 0.029572
1.000000 0.231903 0.040375
0.000000 0.537659 0.000000
0.000000 0.536133 0.000000
0.000000 0.533234 0.000000
0.000000 0.531433 0.000000
0.000000 0.529144 0.000000
0.000000 0.526855 0.000000
0.000000 0.523956 0.000000
0.052643 0.520935 0.000000
0.172516 0.517731 0.000000
0.243073 0.514435 0.000000
0.303680 0.510986 0.000000
0.362762 0.506775 0.000000
0.422333 0.501984 0.000000
0.482208 0.496063 0.000000
0.546783 0.497864 0.000000
0.607758 0.501709 0.000000
0.660675 0.504883 0.000000
0.702881 0.493225 0.000000
0.738800 0.472961 0.000000
0.773651 0.452271 0.000000
0.810028 0.429413 0.000000
0.849701 0.403503 0.000000
0.894501 0.372650 0.000000
0.939789 0.340240 0.000000
0.976776 0.313202 0.000000
1.000000 0.295135 0.000000
1.000000 0.283722 0.000000
1.000000 0.275879 0.000000
1.000000 0.270233 0.000000
1.000000 0.265747 0.000000
1.000000 0.265686 0.000000
1.000000 0.267303 0.000000
0.000000 0.581696 0.000000
0.000000 0.580078 0.000000
0.000000 0.577118 0.000000
0.000000 0.575073 0.000000
0.000000 0.573090 0.000000
0.000000 0.570862 0.000000
0.000000 0.568115 0.000000
0.000000 0.565277 0.000000
0.144196 0.562347 0.000000
0.225555 0.559326 0.000000
0.291199 0.556122 0.000000
0.353363 0.552551 0.000000
0.415314 0.548096 0.000000
0.476776 0.543274 0.000000
0.535675 0.538086 0.000000
0.598175 0.541595 0.000000
0.652496 0.544708 0.000000
0.699860 0.547424 0.000000
0.739990 0.534027 0.000000
0.776825 0.511353 0.000000
0.814850 0.486603 0.000000
0.856323 0.458099 0.000000
0.902802 0.424225 0.000000
0.949585 0.388367 0.000000
0.987488 0.358246 0.000000
1.000000 0.337952 0.000000
1.000000 0.324890 0.000000
1.000000 0.316132 0.000000
1.000000 0.309509 0.000000
1.000000 0.304443 0.000000
1.000000 0.306122 0.000000
1.000000 0.307648 0.000000
0.000000 0.626617 0.000000
0.000000 0.625061 0.000000
0.000000 0.621948 0.000000
0.000000 0.619873 0.000000
0.000000 0.617950 0.000000
0.000000 0.615753 0.000000
0.000000 0.613129 0.000000
0.000000 0.610504 0.000000
0.099365 0.607758 0.000000
0.201477 0.605042 0.000000
0.274536 0.602112 0.000000
0.340942 0.598999 0.000000
0.405701 0.595337 0.000000
0.469269 0.590973 0.000000
0.529755 0.586487 0.000000
0.585754 0.582458 0.000000
0.641724 0.585449 0.000000
0.690308 0.588165 0.000000
0.735321 0.590576 0.000000
0.776398 0.575287 0.000000
0.816711 0.548340 0.000000
0.860229 0.517609 0.000000
0.908844 0.480621 0.000000
0.957458 0.441284 0.000000
0.996704 0.407990 0.000000
1.000000 0.385559 0.000000
1.000000 0.370972 0.000000
1.000000 0.360992 0.000000
1.000000 0.353882 0.000000
1.000000 0.349670 0.000000
1.000000 0.351166 0.000000
1.000000 0.352600 0.000000
0.000000 0.672638 0.000000
0.000000 0.670410 0.000000
0.000000 0.667755 0.000000
0.000000 0.665955 0.000000
0.000000 0.663818 0.000000
0.000000 0.661743 0.000000
0.000000 0.659424 0.000000
0.000000 0.656738 0.000000
0.000000 0.654175 0.000000
0.167206 0.651855 0.000000
0.252075 0.649323 0.000000
0.324615 0.646301 0.000000
0.393066 0.643158 0.000000
0.459229 0.639679 0.000000
0.521606 0.635834 0.000000
0.578522 0.631744 0.000000
0.627960 0.627350 0.000000
0.678131 0.629822 0.000000
0.724304 0.632141 0.000000
0.770020 0.634094 0.000000
0.814606 0.615326 0.000000
0.860870 0.582001 0.000000
0.912170 0.541962 0.000000
0.963104 0.499298 0.000000
1.000000 0.463013 0.000000
1.000000 0.438354 0.000000
1.000000 0.422333 0.000000
1.000000 0.411346 0.000000
1.000000 0.403290 0.000000
1.000000 0.399994 0.000000
1.000000 0.401001 0.000000
1.000000 0.402039 0.000000
0.000000 0.719452 0.000000
0.000000 0.716675 0.000000
0.000000 0.714783 0.000000
0.000000 0.712708 0.000000
0.000000 0.710846 0.000000
0.000000 0.708527 0.000000
0.000000 0.706360 0.000000
0.000000 0.704071 0.000000
0.000000 0.701721 0.000000
0.112366 0.699463 0.000000
0.221741 0.697083 0.000000
0.303131 0.694702 0.000000
0.376892 0.691650 0.000000
0.446320 0.688660 0.000000
0.511047 0.685455 0.000000
0.569611 0.681976 0.000000
0.620087 0.678131 0.000000
0.664246 0.673981 0.000000
0.710480 0.674652 0.000000
0.757294 0.676788 0.000000
0.806641 0.678436 0.000000
0.857330 0.651886 0.000000
0.912048 0.608734 0.000000
0.965881 0.562683 0.000000
1.000000 0.523224 0.000000
1.000000 0.496399 0.000000
1.000000 0.478882 0.000000
1.000000 0.466888 0.000000
1.000000 0.458008 0.000000
1.000000 0.455048 0.000000
1.000000 0.455536 0.000000
1.000000 0.455902 0.000000
0.000000 0.767212 0.000000
0.000000 0.764526 0.000000
0.000000 0.762482 0.000000
0.000000 0.760712 0.000000
0.000000 0.758575 0.000000
0.000000 0.756592 0.000000
0.000000 0.754517 0.000000
0.000000 0.752197 0.000000
0.000000 0.749969 0.000000
0.000000 0.748108 0.000000
0.177917 0.745941 0.000000
0.274872 0.743591 0.000000
0.355865 0.741241 0.000000
0.429749 0.738647 0.000000
0.497406 0.736023 0.000000
0.558014 0.733124 0.000000
0.609924 0.729767 0.000000
0.655212 0.725891 0.000000
0.696991 0.721802 0.000000
0.741638 0.720001 0.000000
0.792267 0.721985 0.000000
0.848297 0.723450 0.000000
0.907562 0.681213 0.000000
0.965088 0.631592 0.000000
1.000000 0.589172 0.000000
1.000000 0.560181 0.000000
1.000000 0.541138 0.000000
1.000000 0.527924 0.000000
1.000000 0.518433 0.000000
1.000000 0.514801 0.000000
1.000000 0.514709 0.000000
1.000000 0.514557 0.000000
0.000000 0.815521 0.000000
0.000000 0.813141 0.000000
0.000000 0.811127 0.000000
0.000000 0.809113 0.000000
0.000000 0.807251 0.000000
0.000000 0.805328 0.000000
0.000000 0.803070 0.000000
0.000000 0.800995 0.000000
0.000000 0.798981 0.000000
0.000000 0.797089 0.000000
0.103668 0.795471 0.000000
0.236359 0.793396 0.000000
0.328796 0.791321 0.000000
0.408875 0.788879 0.000000
0.480316 0.786743 0.000000
0.543396 0.784668 0.000000
0.597076 0.781738 0.000000
0.643585 0.778381 0.000000
0.686401 0.774780 0.000000
0.728821 0.770233 0.000000
0.774811 0.765900 0.000000
0.832367 0.767578 0.000000
0.897522 0.759399 0.000000
0.959778 0.706299 0.000000
1.000000 0.660706 0.000000
1.000000 0.629517 0.000000
1.000000 0.609039 0.000000
1.000000 0.594910 0.000000
1.000000 0.584412 0.000000
1.000000 0.579590 0.000000
1.000000 0.578369 0.000000
1.000000 0.577484 0.000000
0.000000 0.862732 0.000000
0.000000 0.860535 0.000000
0.000000 0.858490 0.000000
0.000000 0.856720 0.000000
0.000000 0.854645 0.000000
0.000000 0.852814 0.000000
0.000000 0.850769 0.000000
0.000000 0.848663 0.000000
0.000000 0.846771 0.000000
0.000000 0.845062 0.000000
0.000000 0.843597 0.000000
0.182404 0.841797 0.000000
0.294678 0.840057 0.000000
0.383270 0.838257 0.000000
0.459686 0.836456 0.000000
0.525940 0.834473 0.000000
0.581696 0.832123 0.000000
0.629700 0.829071 0.000000
0.673737 0.825867 0.000000
0.717163 0.821777 0.000000
0.762726 0.816895 0.000000
0.813843 0.810608 0.000000
0.881348 0.811401 0.000000
0.949310 0.783630 0.000000
1.000000 0.735046 0.000000
1.000000 0.701630 0.000000
1.000000 0.679840 0.000000
1.000000 0.664795 0.000000
1.000000 0.653656 0.000000
1.000000 0.646851 0.000000
1.000000 0.644409 0.000000
1.000000 0.642548 0.000000
0.000000 0.906860 0.000000
0.000000 0.904755 0.000000
0.000000 0.902771 0.000000
0.000000 0.901031 0.000000
0.000000 0.899017 0.000000
0.000000 0.897186 0.000000
0.000000 0.895081 0.000000
0.000000 0.893188 0.000000
0.000000 0.891449 0.000000
0.000000 0.889862 0.000000
0.000000 0.888580 0.000000
0.095154 0.886963 0.000000
0.252625 0.885498 0.000000
0.353729 0.883759 0.000000
0.436279 0.882507 0.000000
0.506317 0.880951 0.000000
0.564423 0.878876 0.000000
0.614227 0.876190 0.000000
0.659546 0.873352 0.000000
0.704071 0.869629 0.000000
0.750732 0.864929 0.000000
0.802246 0.858856 0.000000
0.863190 0.851471 0.000000
0.933868 0.851501 0.000000
0.990936 0.808868 0.000000
1.000000 0.773407 0.000000
1.000000 0.750366 0.000000
1.000000 0.734161 0.000000
1.000000 0.722412 0.000000
1.000000 0.713776 0.000000
1.000000 0.709686 0.000000
1.000000 0.706268 0.000000
0.000000 0.945953 0.000000
0.000000 0.943939 0.000000
0.000000 0.941986 0.000000
0.000000 0.940247 0.000000
0.000000 0.938232 0.000000
0.000000 0.936523 0.000000
0.000000 0.934479 0.000000
0.000000 0.932678 0.000000
0.000000 0.931000 0.000000
0.000000 0.929565 0.000000
0.000000 0.928406 0.000000
0.000000 0.926849 0.000000
0.201447 0.925690 0.000000
0.321228 0.924255 0.000000
0.411377 0.923279 0.000000
0.485718 0.921906 0.000000
0.546478 0.920166 0.000000
0.598022 0.917755 0.000000
0.644714 0.915222 0.000000
0.690491 0.911774 0.000000
0.738190 0.907532 0.000000
0.790741 0.901764 0.000000
0.850952 0.893311 0.000000
0.917084 0.887146 0.000000
0.976593 0.877686 0.000000
1.000000 0.840668 0.000000
1.000000 0.816254 0.000000
1.000000 0.799438 0.000000
1.000000 0.786957 0.000000
1.000000 0.777252 0.000000
1.000000 0.770996 0.000000
1.000000 0.765778 0.000000
0.000000 0.978668 0.000000
0.000000 0.976501 0.000000
0.000000 0.974731 0.000000
0.000000 0.972809 0.000000
0.000000 0.971100 0.000000
0.000000 0.969086 0.000000
0.000000 0.967346 0.000000
0.000000 0.965668 0.000000
0.000000 0.964111 0.000000
0.000000 0.962708 0.000000
0.000000 0.961365 0.000000
0.000000 0.960297 0.000000
0.137634 0.958923 0.000000
0.287689 0.957886 0.000000
0.386993 0.956879 0.000000
0.465851 0.955841 0.000000
0.529297 0.954315 0.000000
0.582489 0.952393 0.000000
0.630707 0.949768 0.000000
0.677399 0.946838 0.000000
0.726196 0.942749 0.000000
0.779785 0.937164 0.000000
0.840912 0.929291 0.000000
0.903503 0.919159 0.000000
0.961731 0.915863 0.000000
1.000000 0.899231 0.000000
1.000000 0.873993 0.000000
1.000000 0.856445 0.000000
1.000000 0.843628 0.000000
1.000000 0.833405 0.000000
1.000000 0.824860 0.000000
1.000000 0.817902 0.000000
0.000000 1.000000 0.000000
0.000000 1.000000 0.000000
0.000000 1.000000 0.000000
0.000000 0.999664 0.000000
0.000000 0.997681 0.000000
0.000000 0.996002 0.000000
0.000000 0.994324 0.000000
0.000000 0.992401 0.000000
0.000000 0.990875 0.000000
0.000000 0.989716 0.000000
0.000000 0.988556 0.000000
0.000000 0.987335 0.000000
0.029266 0.986389 0.000000
0.253815 0.985443 0.000000
0.363770 0.984680 0.000000
0.447357 0.983795 0.000000
0.513428 0.982422 0.000000
0.568481 0.980347 0.000000
